X: 10312
Q: "Slow"
M: C
L: 1/16
K: F
cB |\
(A2c2)~c3d fefg f3e | d3cd2f2 (gfga) g2G2 |\
c'b |\
a2c'2 f2ab (c'ba).b {ab}c'4 | b2d'2 g2(bc') (d'c'b).c' (d'2c'b) |\
a2c'2 | f2ab c'bab c'2f2 | c3fa3f Tg4 f2c'b |
a2c'2 f2ab (c'ba).b c'2ba | b2d'2 g2bc' (d'c').b.c' d'2c'b |\
a3c'g3a f2d2f2d'2 | f3cf3A TG4 F2 |]


